X: 151
T:Muiñeira de Pontesampaio
M:6/8
L:1/8
Q:200
C:Trad
S:Cancionero de Inzenga
R:Muiñeira
K:CMin
G |: C2D E2F | GAG c=Bc | GAG FED |
E2C- C2 G| C2 D E2F | GAG c=Bc | GAG FED |1
C3- C2 G :|2 C3- CGF |: EFG GFG |A2 F F=EF |
DEF F=EF | G2E EDE |CDE EDE |F2D DCD |
=B,CD E2D |1 C3-C GF :|2 C2c c=Bc |: d2 AG2 ^F |
G2 c c=Bc | d2 A G2 ^F | G3 GAG | FGF EFE | 
D2C GAG | FGF E2D |1 C2 c c=Bc :|2 C3- CDE |:
FGF- FDE | FGF- FDE |F2A G2F |GFE- EDE |
FGF- FDE | FGF- FDE F2AG2G |1 CEG cDE :|2 CEG c2

